Adwaita++-Dark/actions/16/view-fullscreen.svg

<svg fill="none" height="16" viewBox="0 0 16 16" width="16" xmlns="http://www.w3.org/2000/svg" xmlns:xlink="http://www.w3.org/1999/xlink">
  <clipPath id="clip0">
    <path d="m0 0h16v16h-16z"/>
  </clipPath>
  <g clip-path="url(#clip0)" clip-rule="evenodd" fill="#e6ddff" fill-rule="evenodd">
    <path d="m5.91197 8.66994c.39053-.39053 1.02369-.39053 1.41422 0 .39052.39052.39052 1.02369 0 1.41426l-2.91585 2.9158h1.58966c.55228 0 1 .4477 1 1v1h-4-1c-.55228 0-1-.4477-1-1v-1-4h1c.55228 0 1 .44772 1 1v1.5819z"/>
    <path d="m10.088 7.33006c-.3905.39053-1.02366.39053-1.41419 0-.39052-.39052-.39052-1.02369 0-1.41421l2.91589-2.91585h-1.5897c-.55228 0-1-.44772-1-1v-1.000001h4 1c.5523 0 1 .447711 1 1.000001v1 4h-1c-.5523 0-1-.44772-1-1v-1.58191z"/>
  </g>
</svg>

<svg xmlns="http://www.w3.org/2000/svg" fill="none" width="16" height="16" viewBox="0 0 16 16">
 <g clip-path="url(#clip0)">
  <path fill="#E6DDFF" fill-rule="evenodd" d="M5.91197 8.66994C6.3025 8.27941 6.93566 8.27941 7.32619 8.66994C7.71671 9.06046 7.71671 9.69363 7.32619 10.0842L4.41034 13H6C6.55228 13 7 13.4477 7 14V15H3H2C1.44772 15 1 14.5523 1 14V13V9H2C2.55228 9 3 9.44772 3 10V11.5819L5.91197 8.66994Z" clip-rule="evenodd"/>
  <path fill="#E6DDFF" fill-rule="evenodd" d="M10.088 7.33006C9.6975 7.72059 9.06434 7.72059 8.67381 7.33006C8.28329 6.93954 8.28329 6.30637 8.67381 5.91585L11.5897 3H10C9.44772 3 9 2.55228 9 2V0.999999H13H14C14.5523 0.999999 15 1.44771 15 2V3V7H14C13.4477 7 13 6.55228 13 6V4.41809L10.088 7.33006Z" clip-rule="evenodd"/>
 </g>
 <defs>
  <clipPath id="clip0">
   <rect fill="#fff" width="16" height="16"/>
  </clipPath>
 </defs>
</svg>
